remix/Editor/separator.svg

<svg viewBox="0 0 24 24" xmlns="http://www.w3.org/2000/svg"><path fill="none" d="M0 0h24v24H0Z"/><path d="M2 11h2v2H2v-2Zm4 0h12v2H6v-2Zm14 0h2v2h-2v-2Z"/></svg>

<svg viewBox="0 0 24 24" fill="currentColor" xmlns="http://www.w3.org/2000/svg"><path d="M2 11H4V13H2V11ZM6 11H18V13H6V11ZM20 11H22V13H20V11Z"/></svg>
